X:4
T:Pleasures of The Chace. Tho24CDs1792.04, The
M:6/8
L:1/8
Q:3/8=120
C:"76"
B:Thompson 24 CDs 1792
Z:Village Music Project, Chris Partington, 1999 & 2017
W:First Cu: turn right hands quite round and cast off .1st Cu .| then turn
W:left hands:| hands 4 round at bottom:|. right and left at top:|
K:C
|:A2Bc2d|ecA ecA|^G2AB2c|dB^G dB^G|
A2Bc2d|ecA a2g|fed cBA|{c}BA^G!fine!A3:|
c2de2f|gc'g ege|c2de2f|gec gec|
^G2AB2c|dgd BdB|^G2AB2c|dB^G!D.C.! dB^G|]

